X:1
T:Falconer, LM
T:Alexander B. Morton, 1901
T:Falconer, LM
T:Public Domain
C:Alexander B. Morton, 1901
Z:Public Domain
%%score ( 1 2 ) ( 3 4 )
L:1/8
M:4/4
K:C
V:1 treble 
V:2 treble 
V:3 bass 
V:4 bass 
V:1
 [CE]2 | [CE]3 [FA] [EG][CE]C[CD] | [CE]4- [CE][CE][DE][DE] | [CE]3 [Ec] (AE) [D^F]2 | %4
 [DG]4- [DG]G[^FA][=FB] | [Ec]4- [Ec][Ge][Ge][Fd] | [Ec]4- [Ec][Ec][GB][FA] | %7
 [Gc]2 [EG]2 [DG]3 [B,F] | [CE]6 |] %9
V:2
 x2 | x6 C x | x8 | x4 E2 x2 | x5 G x2 | x8 | x8 | x8 | x6 |] %9
V:3
 [C,G,]2 | [C,G,]3 [C,G,] [C,G,][C,G,][C,E,][C,F,] | [C,G,]4- [C,G,][C,G,][B,,^G,][B,,G,] | %3
 [A,,A,]3 [A,,A,] [A,,C]2 [D,C]2 | [G,B,]4- [G,B,][G,B,][G,C][G,D] | C4- CC[G,C][G,B,] | %6
 [C,C]4- [C,C][C,C][E,C][F,C] | [E,C]2 [C,C]2 [G,,G,B,]3 [G,,G,] | [C,G,]6 |] %9
V:4
 x2 | x8 | x8 | x8 | x8 | C4- CC x2 | x8 | x8 | x6 |] %9

